X: 1
T: the Slender Mountain Ash
T: Tonkaya Ryabina
C: Alexander Shalov
O: Russia
R: waltz
Z: 2013 John Chambers <jc:trillian.mit.edu>
M: 3/4
L: 1/4
K: Em
[| "Em"E2 G |     B2 c | "Am"B A2- | A2 z | "B7"^D2 F | c2 B | "Em"A G2- | G2 z |]
|: "Em"EG B | "E7"e2 d | "Am"d c2- | c2 z | "B7" d2 c | B2 A | "Em"B E2- | E2 z :|
